recipes/linkedin/icon.svg

<svg height="80" viewBox="0 0 80 80" width="80" xmlns="http://www.w3.org/2000/svg" xmlns:xlink="http://www.w3.org/1999/xlink"><mask id="a" fill="#fff"><path d="m39.9984444 80h-39.9984444v-80h39.9984444 39.9984445v80z" fill="#fff" fill-rule="evenodd"/></mask><g fill="none" fill-rule="evenodd"><path d="m74.0798519 0h-68.17629634c-3.2562963 0-5.90370371 2.5837037-5.90370371 5.76888889v68.45925921c0 3.1851852 2.64740741 5.7718519 5.90370371 5.7718519h68.17629634c3.2637037 0 5.917037-2.5866667 5.917037-5.7718519v-68.45925921c0-3.18518519-2.6533333-5.76888889-5.917037-5.76888889" fill="#0065a1" mask="url(#a)"/><g fill="#fefefe"><path d="m17.7908148 11.0127407c3.7940741 0 6.8770371 3.082963 6.8770371 6.882963 0 3.797037-3.082963 6.88-6.8770371 6.88-3.8014815 0-6.877037-3.082963-6.877037-6.88 0-3.8 3.0755555-6.882963 6.877037-6.882963zm-5.9348148 57.1555556h11.8696296v-38.1777778h-11.8696296z"/><path d="m31.1675556 29.9906667h11.3807407v5.2207407h.162963c1.5837037-3.002963 5.4548148-6.1659259 11.2266666-6.1659259 12.0148148 0 14.2325926 7.9037037 14.2325926 18.1837037v20.9392592h-11.8592592v-18.5659259c0-4.4281481-.0785186-10.1229629-6.165926-10.1229629-6.1748148 0-7.117037 4.8266666-7.117037 9.8044444v18.8844444h-11.8607407z"/></g></g></svg>

<svg height="80" width="80" xmlns="http://www.w3.org/2000/svg"><mask id="a" fill="#fff"><path d="M39.998 80H0V0h79.997v80z" fill-rule="evenodd"/></mask><g fill="none" fill-rule="evenodd"><path d="M74.08 0H5.904C2.647 0 0 2.584 0 5.769v68.46C0 77.412 2.647 80 5.904 80H74.08c3.264 0 5.917-2.587 5.917-5.772V5.768C79.997 2.585 77.344 0 74.08 0" fill="#0065a1" mask="url(#a)"/><g fill="#fefefe"><path d="M17.79 11.013c3.795 0 6.878 3.083 6.878 6.883a6.883 6.883 0 0 1-6.877 6.88 6.878 6.878 0 0 1-6.877-6.88c0-3.8 3.075-6.883 6.877-6.883zm-5.934 57.155h11.87V29.991h-11.87zM31.168 29.99h11.38v5.221h.163c1.584-3.003 5.455-6.166 11.227-6.166 12.015 0 14.233 7.904 14.233 18.184v20.94H56.31V49.602c0-4.429-.078-10.123-6.166-10.123-6.174 0-7.117 4.826-7.117 9.804v18.884h-11.86z"/></g></g></svg>
